X:0905
T:Mrs Grant's Fancy
P:Miss Grant of Grant
C:Robert Mackintosh
R:Strathspey (8x32)
B:RSCDS 9-5
Z:Anselm Lingnau <anselm@strathspey.org>
M:4/4
L:1/8
K:G
D|"G"G/A/B/c/ dB "D"c>A FD|"G"G>B d>B g>f gd|\
  "Am"A>e "G"d<G "D"F<A Ac|"G"B/c/d "D7"A>c "G"B<G G D|
  "G"G/A/B/c/ dB "D"c>A FD|"G"G>B d>B g>f gd|\
  "Am"A<e "G"d<G "D"F<A Ac|"G"B/c/d "D7"A>c "G"B<G G||
d|"G"g f/g/ b>g "D"a>f da|"Em"g2 a/g/f/e/ "B"f>^d Bg|\
  "Am"e<a c<e "G"d<g B<d|"Am"A>e "D"d>c "G"B<G Gd|
  "G"g f/g/ db "D"a<f da|"Em"g>f e>g "B"f>^d Bg|\
  "C"e>c B>A "G"d>B A>G|"D"F>d A>c "G"B<G G|]
